X:248
T: Unmoegliche Dinge
N: A0293
O: Europa, Mitteleuropa, Deutschland
N: Rhaw, Bicinia I. 1545 No. 96
R: Romanze, Ballade, Lied
M: 4/2
L: 1/4
K: C
C2 | C2C2G2G2 | G2G2G2
G2 | F2G2A2G2 | G2F2E2z2 | z2
E2F2F2 | G2E2F2E2 | G2
E2F2F2 | G4F2E4DC | D4C2

